images/tooltip-triangle.svg

<svg xmlns="http://www.w3.org/2000/svg" width="8" height="16" fill="none"><rect id="backgroundrect" width="100%" height="100%" x="0" y="0" fill="none" stroke="none"/><defs><filter id="a" x="0.28999999165534973" y="0.7900000214576721" width="24.209999084472656" height="32.40999984741211" filterUnits="userSpaceOnUse" color-interpolation-filters="sRGB"><feFlood flood-opacity="0" result="BackgroundImageFix"/><feColorMatrix in="SourceAlpha" values="0 0 0 0 0 0 0 0 0 0 0 0 0 0 0 0 0 0 127 0" result="hardAlpha"/><feOffset dy="4"/><feGaussianBlur stdDeviation="4"/><feColorMatrix values="0 0 0 0 0.7625 0 0 0 0 0.7625 0 0 0 0 0.7625 0 0 0 0.2 0"/><feBlend in2="BackgroundImageFix" result="effect1_dropShadow_884_2844"/><feBlend in="SourceGraphic" in2="effect1_dropShadow_884_2844" result="shape"/></filter></defs><g class="currentLayer" style=""><title>Layer 1</title><g filter="url(#a)" id="svg_1" class=""><path d="m0.7100000381469727,8.199999809265137 l7,-7 v14 l-7,-7 z" fill="#fff" id="svg_2"/><path d="M7.710000038146973,1.1999998092651367 h0.5 V-1.9073486345888568e-7 l-0.8500000000000001,0.8500000000000001 L7.710000038146973,1.1999998092651367 zm-7,7 l-0.35000000000000003,-0.35000000000000003 l-0.36000000000000004,0.35000000000000003 l0.36000000000000004,0.35000000000000003 L0.7100000381469727,8.199999809265137 zm7,7 l-0.35000000000000003,0.35000000000000003 l0.8500000000000001,0.8600000000000001 V15.199999809265137 H7.710000038146973 zm-0.35000000000000003,-14.35 l-7,7 l0.7000000000000001,0.7000000000000001 l7,-7 l-0.7000000000000001,-0.7000000000000001 zm-7,7.7 l7,7 l0.7000000000000001,-0.7000000000000001 l-7,-7 l-0.7000000000000001,0.7000000000000001 zM8.210000038146973,15.199999809265137 V1.1999998092651367 h-1 v14 h1 z" fill="#B9B9B9" id="svg_3"/></g></g></svg>

<?xml version="1.0" encoding="UTF-8" standalone="no"?>
<svg
   width="8"
   height="16"
   fill="none"
   version="1.1"
   id="svg728"
   sodipodi:docname="tooltip-triangle888.svg"
   inkscape:version="1.2.2 (732a01da63, 2022-12-09)"
   xmlns:inkscape="http://www.inkscape.org/namespaces/inkscape"
   xmlns:sodipodi="http://sodipodi.sourceforge.net/DTD/sodipodi-0.dtd"
   xmlns="http://www.w3.org/2000/svg"
   xmlns:svg="http://www.w3.org/2000/svg">
  <sodipodi:namedview
     id="namedview730"
     pagecolor="#ffffff"
     bordercolor="#000000"
     borderopacity="0.25"
     inkscape:showpageshadow="2"
     inkscape:pageopacity="0.0"
     inkscape:pagecheckerboard="0"
     inkscape:deskcolor="#d1d1d1"
     showgrid="false"
     inkscape:zoom="45.254834"
     inkscape:cx="9.291825"
     inkscape:cy="7.1815532"
     inkscape:window-width="1600"
     inkscape:window-height="837"
     inkscape:window-x="-8"
     inkscape:window-y="-8"
     inkscape:window-maximized="1"
     inkscape:current-layer="svg728" />
  <rect
     id="backgroundrect"
     width="100%"
     height="100%"
     x="0"
     y="0"
     fill="none"
     stroke="none" />
  <defs
     id="defs719">
    <inkscape:path-effect
       effect="bspline"
       id="path-effect734"
       is_visible="true"
       lpeversion="1"
       weight="33.333333"
       steps="2"
       helper_size="0"
       apply_no_weight="true"
       apply_with_weight="true"
       only_selected="false" />
    <filter
       id="a"
       x="0.28999999165534973"
       y="0.7900000214576721"
       width="24.209999084472656"
       height="32.40999984741211"
       filterUnits="userSpaceOnUse"
       color-interpolation-filters="sRGB">
      <feFlood
         flood-opacity="0"
         result="BackgroundImageFix"
         id="feFlood704" />
      <feColorMatrix
         in="SourceAlpha"
         values="0 0 0 0 0 0 0 0 0 0 0 0 0 0 0 0 0 0 127 0"
         result="hardAlpha"
         id="feColorMatrix706" />
      <feOffset
         dy="4"
         id="feOffset708" />
      <feGaussianBlur
         stdDeviation="4"
         id="feGaussianBlur710" />
      <feColorMatrix
         values="0 0 0 0 0.7625 0 0 0 0 0.7625 0 0 0 0 0.7625 0 0 0 0.2 0"
         id="feColorMatrix712" />
      <feBlend
         in2="BackgroundImageFix"
         result="effect1_dropShadow_884_2844"
         id="feBlend714" />
      <feBlend
         in="SourceGraphic"
         in2="effect1_dropShadow_884_2844"
         result="shape"
         id="feBlend716" />
    </filter>
  </defs>
  <g
     class="currentLayer"
     id="g726"
     transform="translate(-0.194825,-0.75494673)">
    <title
       id="title721">Layer 1</title>
    <g
       filter="url(#a)"
       id="svg_1"
       class="">
      <path
         d="m 0.71000004,8.1999998 6.99999996,-7 V 15.2 Z"
         fill="#ffffff"
         id="svg_2" />
      <path
         d="m 7.71,1.1999998 h 0.5 V -1.9073486e-7 L 7.36,0.84999981 Z m -6.99999996,7 -0.35,-0.35 L 3.8146973e-8,8.1999998 0.36000004,8.5499998 Z M 7.71,15.2 7.36,15.55 8.21,16.41 V 15.2 Z M 7.36,0.84999981 0.36000004,7.8499998 l 0.69999996,0.7 7,-7 z M 0.36000004,8.5499998 7.36,15.55 l 0.7,-0.7 -7,-7.0000002 z M 8.21,15.2 V 1.1999998 h -1 V 15.2 Z"
         fill="#b9b9b9"
         id="svg_3" />
    </g>
  </g>
  <rect
     style="fill:#ffffff;stroke-width:1.01695"
     id="rect1151"
     width="1.0911973"
     height="11.592085"
     x="6.9239697"
     y="1.6347032" />
  <path
     sodipodi:type="star"
     style="fill:#ffffff"
     id="path1260"
     inkscape:flatsided="true"
     sodipodi:sides="3"
     sodipodi:cx="7.5703125"
     sodipodi:cy="1.1757812"
     sodipodi:r1="0.48829687"
     sodipodi:r2="0.24414842"
     sodipodi:arg1="1.1680054"
     sodipodi:arg2="2.2152029"
     inkscape:rounded="0"
     inkscape:randomized="0"
     d="M 7.7617187,1.625 7.0855745,1.1169345 7.8636442,0.78540921 Z"
     inkscape:transform-center-x="0.085874125"
     inkscape:transform-center-y="0.005126"
     transform="matrix(0.70434265,-0.13813144,0.08929317,1.3120467,2.4082312,0.61378368)" />
  <path
     sodipodi:type="star"
     style="fill:#ffffff"
     id="path1260-3"
     inkscape:flatsided="true"
     sodipodi:sides="3"
     sodipodi:cx="7.5703125"
     sodipodi:cy="1.1757812"
     sodipodi:r1="0.48829687"
     sodipodi:r2="0.24414842"
     sodipodi:arg1="1.1680054"
     sodipodi:arg2="2.2152029"
     inkscape:rounded="0"
     inkscape:randomized="0"
     d="M 7.7617187,1.625 7.0855745,1.1169345 7.8636442,0.78540921 Z"
     inkscape:transform-center-x="0.07261298"
     inkscape:transform-center-y="-0.23345155"
     transform="matrix(0.12554087,0.73484342,-1.1600017,0.10076862,7.9125627,-4.2216844)" />
  <path
     sodipodi:type="star"
     style="fill:#ffffff"
     id="path1284"
     inkscape:flatsided="true"
     sodipodi:sides="3"
     sodipodi:cx="7.0158253"
     sodipodi:cy="13.219582"
     sodipodi:r1="0.55474252"
     sodipodi:r2="0.27737126"
     sodipodi:arg1="-0.77131459"
     sodipodi:arg2="0.27588296"
     inkscape:rounded="0"
     inkscape:randomized="0"
     d="M 7.4135728,12.832883 7.1518427,13.757391 6.4820603,13.068472 Z"
     inkscape:transform-center-x="0.12106213"
     inkscape:transform-center-y="0.096322192"
     transform="matrix(0.84810331,0,0.24620564,1.2748667,-1.4403053,-3.1240607)" />
  <path
     sodipodi:type="star"
     style="fill:#ffffff"
     id="path1284-5"
     inkscape:flatsided="true"
     sodipodi:sides="3"
     sodipodi:cx="7.0158253"
     sodipodi:cy="13.219582"
     sodipodi:r1="0.55474252"
     sodipodi:r2="0.27737126"
     sodipodi:arg1="-0.77131459"
     sodipodi:arg2="0.27588296"
     inkscape:rounded="0"
     inkscape:randomized="0"
     d="M 7.4135728,12.832883 7.1518427,13.757391 6.4820603,13.068472 Z"
     inkscape:transform-center-x="0.047667102"
     inkscape:transform-center-y="0.12217456"
     transform="matrix(1.0820574,0.20976891,-0.09639923,0.8760704,1.2339242,0.39772715)" />
  <path
     style="fill:#ffffff;fill-opacity:1;stroke-width:0.0220971"
     d="M 4.4404355,4.3961982 C 3.4234948,5.4131245 2.406554,6.430051 1.3896133,7.4469773 3.228311,9.2887679 5.0657444,11.131821 6.9059438,12.972112 6.9125007,9.2925958 6.9094515,5.6081154 6.9101734,1.9265035 6.0869274,2.749735 5.2636814,3.5729666 4.4404355,4.3961982 Z"
     id="path1105" />
  <path
     style="fill:#ffffff;fill-opacity:1;stroke-width:0.0220971"
     d="M 4.4404355,4.3961982 C 3.4234948,5.4131245 2.406554,6.430051 1.3896133,7.4469773 3.228311,9.2887679 5.0657444,11.131821 6.9059438,12.972112 6.9125007,9.2925958 6.9094515,5.6081154 6.9101734,1.9265035 6.0869274,2.749735 5.2636814,3.5729666 4.4404355,4.3961982 Z"
     id="path1107" />
  <path
     style="fill:#ffffff;fill-opacity:1;stroke-width:0.0220971"
     d="m 4.4404355,4.3961982 c -1.0168401,1.0168401 -2.03368,2.03368 -3.0505201,3.0505201 1.838933,1.838305 3.6759487,3.6778327 5.5160284,5.5134387 0.00654,-3.6755316 0.00352,-7.356026 0.00423,-11.0336535 -0.823246,0.8232315 -1.646492,1.6464631 -2.4697383,2.4696947 z"
     id="path1109"
     inkscape:highlight-color="#ffffff" />
</svg>
